src/img/hero-decor-right.svg

<?xml version="1.0" encoding="UTF-8" standalone="no"?>
<svg
   width="739"
   height="760"
   viewBox="0 0 739 760"
   fill="none"
   version="1.1"
   id="svg150"
   sodipodi:docname="hero-decor-right.svg"
   inkscape:version="1.1 (c4e8f9e, 2021-05-24)"
   xmlns:inkscape="http://www.inkscape.org/namespaces/inkscape"
   xmlns:sodipodi="http://sodipodi.sourceforge.net/DTD/sodipodi-0.dtd"
   xmlns="http://www.w3.org/2000/svg"
   xmlns:svg="http://www.w3.org/2000/svg">
  <sodipodi:namedview
     id="namedview152"
     pagecolor="#ffffff"
     bordercolor="#666666"
     borderopacity="1.0"
     inkscape:pageshadow="2"
     inkscape:pageopacity="0.0"
     inkscape:pagecheckerboard="0"
     showgrid="false"
     units="mm"
     inkscape:zoom="0.44338376"
     inkscape:cx="425.13961"
     inkscape:cy="179.30291"
     inkscape:window-width="1312"
     inkscape:window-height="809"
     inkscape:window-x="0"
     inkscape:window-y="23"
     inkscape:window-maximized="0"
     inkscape:current-layer="svg150" />
  <g
     clip-path="url(#clip0_160_425)"
     id="g136">
    <path
       d="M 764.844,230.819 717.744,98.9173 595.36,82.8809 566.659,10.2961 431.101,27.8165 l 6.801,-62.1227 h 326.942 c 0,0 0,266.2402 0,265.1252 z"
       fill="#2d1f30"
       id="path106" />
    <path
       d="m 728.446,131.278 -1.059,-1.034 c 4.323,-4.385 7.742,-9.509 10.162,-15.231 5.092,-12.02 5.181,-25.2952 0.267,-37.389 C 732.894,65.5302 723.546,56.0797 711.497,51 699.448,45.9203 686.141,45.8243 674.018,50.7342 661.903,55.6441 652.422,64.9691 647.33,76.989 c -1.724,4.0756 -2.894,8.3505 -3.463,12.6919 l -1.466,-0.192 c 0.585,-4.4816 1.791,-8.8747 3.567,-13.0758 5.248,-12.3817 15.01,-21.9873 27.495,-27.0448 12.486,-5.0575 26.2,-4.9616 38.612,0.2732 12.411,5.2347 22.04,14.9732 27.11,27.4288 5.07,12.4555 4.973,26.1367 -0.274,38.5187 -2.494,5.892 -6.017,11.171 -10.473,15.689 z"
       fill="#ffffff"
       id="path108" />
    <path
       d="m 692.558,146.377 c -6.631,0 -13.337,-1.314 -19.746,-4.017 -20.834,-8.778 -33.342,-30.522 -30.404,-52.871 l 1.466,0.192 c -2.85,21.692 9.288,42.793 29.515,51.321 18.629,7.856 39.825,3.633 54.006,-10.757 l 1.058,1.033 c -9.725,9.872 -22.662,15.099 -35.888,15.099 z"
       fill="#2d1f30"
       id="path110" />
    <path
       d="m 208.64,-34.3062 83.062,57.8035 11.02,-57.8035 z"
       fill="#2d1f30"
       id="path112" />
    <path
       d="m 654.694,373.862 77.8,99.94 -44.761,32.959 25.578,35.085 -114.036,-9.569 -2.131,137.152 -14.329,0.325 c 1.828,1.166 3.138,2.938 3.479,5.308 l 185.633,0.746 2.132,-335.968 z"
       fill="#2d1f30"
       id="path114" />
    <path
       d="m 683.521,437.572 -63.153,-25.738 26.533,-64.78 41.039,16.73 -0.555,1.366 -39.677,-16.169 -25.408,62.041 60.415,24.623 6.757,-16.509 1.369,0.562 z"
       fill="#ff6868"
       id="path116" />
    <path
       d="m 690.841,419.698 -1.369,-0.562 18.65,-45.532 -20.737,-8.454 0.555,-1.366 22.114,9.008 z"
       fill="#ffffff"
       id="path118" />
    <path
       d="m 634.896,271.766 57.596,-53.358 29.485,38.282 z"
       fill="#2d1f30"
       id="path120" />
    <path
       d="M 372.27,58.5975 349.741,-11.6099 403.769,7.08454 Z"
       fill="#2d1f30"
       id="path122" />
    <path
       d="m 577.501,637.777 -16.408,-57.405 50.179,25.841 z"
       fill="#ff6868"
       id="path124" />
    <path
       d="m 546.039,38.0868 -69.673,39.552 27.998,-79.10413 z"
       fill="#ff6868"
       id="path126" />
    <path
       d="m 644.177,633.908 -1.435,-0.347 12.53,-51.424 44.369,28.447 -4.426,-36.783 29.804,-13.836 0.622,1.336 -28.827,13.386 4.67,38.836 -45.265,-29.024 z"
       fill="#ff6868"
       id="path128" />
    <path
       d="m 617.548,263.963 -0.384,-1.425 65.573,-17.764 -33.608,-25.236 43.192,-22.121 0.674,1.307 -41.083,21.05 34.133,25.635 z"
       fill="#ff6868"
       id="path130" />
    <path
       d="M 13.8437,658.226 13,657.015 39.5772,638.638 25.604,612.302 54.7346,587 l 0.9695,1.115 -28.2424,24.527 14.0324,26.462 z"
       fill="#ff6868"
       id="path132" />
    <rect
       x="172"
       y="454"
       width="571"
       height="272"
       fill="url(#paint0_linear_160_425)"
       id="rect134" />
  </g>
  <defs
     id="defs148">
    <linearGradient
       id="paint0_linear_160_425"
       x1="456.755"
       y1="454"
       x2="457.19601"
       y2="649.22498"
       gradientUnits="userSpaceOnUse">
      <stop
         stop-color="#FDE7EF"
         id="stop138" />
      <stop
         stop-color="#FDE7EF"
         stop-opacity="0"
         id="stop140" />
      <stop
         offset="1"
         stop-color="#FDE7EF"
         id="stop142" />
    </linearGradient>
    <clipPath
       id="clip0_160_425">
      <rect
         width="796.117"
         height="711.89301"
         fill="#ffffff"
         transform="translate(-22.0587,-36.0854)"
         id="rect145"
         x="0"
         y="0" />
    </clipPath>
  </defs>
</svg>

<svg width="739" height="676" viewBox="0 0 739 676" fill="none" xmlns="http://www.w3.org/2000/svg">
<g clip-path="url(#clip0_160_425)">
<path d="M764.844 230.819L717.744 98.9173L595.36 82.8809L566.659 10.2961L431.101 27.8165L437.902 -34.3062H764.844C764.844 -34.3062 764.844 231.934 764.844 230.819Z" fill="#2D1F30"/>
<path d="M728.446 131.278L727.387 130.244C731.71 125.859 735.129 120.735 737.549 115.013C742.641 102.993 742.73 89.7178 737.816 77.624C732.894 65.5302 723.546 56.0797 711.497 51C699.448 45.9203 686.141 45.8243 674.018 50.7342C661.903 55.6441 652.422 64.9691 647.33 76.989C645.606 81.0646 644.436 85.3395 643.867 89.6809L642.401 89.4889C642.986 85.0073 644.192 80.6142 645.968 76.4131C651.216 64.0314 660.978 54.4258 673.463 49.3683C685.949 44.3108 699.663 44.4067 712.075 49.6415C724.486 54.8762 734.115 64.6147 739.185 77.0703C744.255 89.5258 744.158 103.207 738.911 115.589C736.417 121.481 732.894 126.76 728.438 131.278H728.446Z" fill="white"/>
<path d="M692.558 146.377C685.927 146.377 679.221 145.063 672.812 142.36C651.978 133.582 639.47 111.838 642.408 89.489L643.874 89.681C641.024 111.373 653.162 132.474 673.389 141.002C692.018 148.858 713.214 144.635 727.395 130.245L728.453 131.278C718.728 141.15 705.791 146.377 692.565 146.377H692.558Z" fill="#2D1F30"/>
<path d="M208.64 -34.3062L291.702 23.4973L302.722 -34.3062H208.64Z" fill="#2D1F30"/>
<path d="M654.694 373.862L732.494 473.802L687.733 506.761L713.311 541.846L599.275 532.277L597.144 669.429L582.815 669.754C584.643 670.92 585.953 672.692 586.294 675.062L771.927 675.808L774.059 339.84L654.694 373.862Z" fill="#2D1F30"/>
<path d="M683.521 437.572L620.368 411.834L646.901 347.054L687.94 363.784L687.385 365.15L647.708 348.981L622.3 411.022L682.715 435.645L689.472 419.136L690.841 419.698L683.521 437.572Z" fill="#FF6868"/>
<path d="M690.841 419.698L689.472 419.136L708.122 373.604L687.385 365.15L687.94 363.784L710.054 372.792L690.841 419.698Z" fill="white"/>
<path d="M634.896 271.766L692.492 218.408L721.977 256.69L634.896 271.766Z" fill="#2D1F30"/>
<path d="M372.27 58.5975L349.741 -11.6099L403.769 7.08454L372.27 58.5975Z" fill="#2D1F30"/>
<path d="M577.501 637.777L561.093 580.372L611.272 606.213L577.501 637.777Z" fill="#FF6868"/>
<path d="M546.039 38.0868L476.366 77.6388L504.364 -1.46533L546.039 38.0868Z" fill="#FF6868"/>
<path d="M644.177 633.908L642.742 633.561L655.272 582.137L699.641 610.584L695.215 573.801L725.019 559.965L725.641 561.301L696.814 574.687L701.484 613.523L656.219 584.499L644.177 633.908Z" fill="#FF6868"/>
<path d="M617.548 263.963L617.164 262.538L682.737 244.774L649.129 219.538L692.321 197.417L692.995 198.724L651.912 219.774L686.045 245.409L617.548 263.963Z" fill="#FF6868"/>
<path d="M13.8437 658.226L13 657.015L39.5772 638.638L25.604 612.302L54.7346 587L55.7041 588.115L27.4617 612.642L41.4941 639.104L13.8437 658.226Z" fill="#FF6868"/>
<rect x="172" y="454" width="571" height="272" fill="url(#paint0_linear_160_425)"/>
</g>
<defs>
<linearGradient id="paint0_linear_160_425" x1="456.755" y1="454" x2="457.196" y2="649.225" gradientUnits="userSpaceOnUse">
<stop stop-color="#FDE7EF"/>
<stop stop-color="#FDE7EF" stop-opacity="0"/>
<stop offset="1" stop-color="#FDE7EF"/>
</linearGradient>
<clipPath id="clip0_160_425">
<rect width="796.117" height="711.893" fill="white" transform="translate(-22.0587 -36.0854)"/>
</clipPath>
</defs>
</svg>
